X: 114
T: Tabhair Dom Do L\'amh
M: 3/4
L: 1/4
R: waltz
Q: 175
K: G
D|EGG|G2D|EGG|G2D|EGG|GAB|Bed|B2A/G/|
AAe/d/|BBd/B/|AA/B/ A/G/|E2D|EGG|G2D|EGG|
G2D|EGG|GAB|D>B A/B/|G2D|EGG|GAB|Bed|B2A/G/|AAe/d/|
BBd/B/|AAB/d/|e2d/B/|dde|g2e/d/|eeg|a2g/e/|ggd/e/|ggd/e/|
gga|b3|bbb|b2a/g/|a>g a/b/|a2g/f/|eeg/e/|dde/d/|BBd/B/|A2B/A/|
GBd|=f2e/d/|eeg|e2d/B/|dde/d/|BBd/B/|A>c B/A/|G2 ||
